X: 1
T: On A Bank Of Flowers
M: 4/4
L: 1/8
R: hornpipe
K: Emin
EF|G2 E2 E2 FG|F2 E2 E2 GA|BABc BAGA|F2 E2 E2 GA|
B2 B2 B2 e2|e3d B2 GA|B2 cBAG F2|G2 E2 E2 B2|
B2 e2 e2 e2|e3d B4-|B2 cBAG F2|G2 B6|
A2 cBAG F2|G2 E2 E2 EF|G2 B2 B2 ^c^d|e2 B2 B2 g2|
f2 e2 gfe^d|e6 EF|G2 B2 B2 ^c^d|e2 B2 B2 g2|
f2 e2 gfe^d|e4 z2 ga|b2 g2 g2 ab|a2 d2 d2 ef|
g2 e2 e2 fg|f2 B2 B2 GA|BABc BAGA|BABc B2 g2|
f2 e2 gfe^d|e8|BAGA BABA|G2 A B2 c B2|A6 d2|[B8e8]|
